X: 15
T:Broad Sword Hornpipe. BF14.14
M:4/4
Q:160
S:MS14,Browne "D",early 19thC,Troutbeck,W'morland
R:Hornpipe
O:England
A:Lake District
Z:vmp.Chris Partington
K:D
de|f2f2f2ef|gedc defd|BdAd GdFd|cdef ecde|!
f2f2f2ef|gedcd2dc|Bbag fedc|dcded2:|!
|:cd|e2e2eddc|cBA^G Acea|e2e2ed dc|cB A^G A2de|!
fdcB gedc|aedc bgfe|fefaA2Bc|dcded2:|]
% Output from ABC2Win  Version 2.1 k on 25/04/2004
